currency-jpy.svg

<svg fill="currentColor" viewBox="0 0 24 24"><path d="M13.92 11H18v2h-5v2h5v2h-5v4h-2v-4H6v-2h5v-2H6v-2h4.08L5 3h2.37L12 10.29 16.63 3H19z"/></svg>

<svg  viewBox="0 0 24 24" fill="currentColor"><path  d="M13.92 11H18V13H13V15H18V17H13V21H11V17H6V15H11V13H6V11H10.08L5 3H7.37L12 10.29L16.63 3H19L13.92 11Z"/></svg>
